X:208
T: IN DER GROSSEN SEESTADT LEIPZIG
N: B0693
O: Europa, Mitteleuropa, Deutschland
R: Scherz - Lied
M: 3/4
L: 1/8
K: F
 | CAAAGF | FEE2z2 |
CBBBAG | G2A2z2 |
Ffffff | d2f2ed |
ccdcBE | G2F2z2 |
Ffffff | d2f2ed |
ccdcBE | G2F2z2

@@@ Tune index: 2426
